X:1
T:Title
%%score { ( 1 3 ) | ( 2 4 ) }
L:1/8
Q:1/4=90
M:6/8
K:Eb
V:1 treble nm="Grand Piano"
V:3 treble 
V:2 bass 
V:4 bass 
V:1
 [GB][GB][GB] [GB][EG][FA] | [GB]2 [Ge] .[Ge]3 | ccc [ce][Bd][Ac] | [Ac][GB][_G=A] [=GB]3 | %4
w: J.~M.~Good * * * * *||||
 [GB][GB][GB] [GB][B,EG][B,FA] |[M:13/16] E-<E-[EBe]e-<ec3/2 |[M:3/4] [GB]B BB B[FB] | %7
w: |||
 [EB]A [A,DF] [G,E]3 | z2 z [GB]3 | cB A G3 | FF FG GG | =AG [CEA] [B,DB]3 | %12
w: |||||
 BG B[Ge]- [B,G-e-][B,Ge] | fe d c3 | [GB][GB] [Ge]G/G/- GG[Q:1/4=89][Q:1/4=87] | %15
w: |||
 [DB]A [A,DF] [G,E]3[Q:1/4=86][Q:1/4=85][Q:1/4=83][Q:1/4=82][Q:1/4=81][Q:1/4=79][Q:1/4=78][Q:1/4=77][Q:1/4=75][Q:1/4=74][Q:1/4=73][Q:1/4=71][Q:1/4=70][Q:1/4=69] |] %16
w: |
V:2
 [E,E][E,E][E,E] [E,E][E,B,][E,B,] | [E,E]2 [E,B,] .[E,B,]3 | %2
 [A,CA][A,CA][A,CA] [A,C][A,C][K:bass][A,C] | [E,E]2 [E,E] [E,E]3 | [E,E][E,E][E,E] [E,E]E,E, | %5
[M:13/16] z/ z/ z/ z/ z[K:treble] [CA]-<[CA] z/ z | %6
[M:3/4] [E,E][G,EG] [B,EG][G,DF][K:bass] [F,B,F][D,B,] | z F B,, E,3 | GB A[K:bass]E, .G,2 | %9
 [A,B,E][G,B,E] [F,B,E] [E,B,E]3 | [F,B,D][F,B,D] [F,B,D][F,=A,E] [F,A,E][F,A,E] | [F,C]2 z2 z2 | %12
 GE G[K:bass]E, .G,2 | [A,CF][A,CA] [A,EA] [A,EA]3 | [E,E][E,E] [E,B,][E,E]/[E,E]/- [E,E][E,B,E] | %15
 z F B,, E,3 |] %16
V:3
 x6 | x6 | x6 | x6 | x6 |[M:13/16] [GB]-<[GB] z/ z/ z/ z/ z/ z/ z/ z |[M:3/4] x6 | x6 | %8
 ed cB, B,B, | x6 | x6 | x6 | z2 z E z2 | x6 | x6 | x6 |] %16
V:4
 x6 | x6 | x5[K:bass] x | x6 | x6 |[M:13/16] E,-<E,G,[K:treble]A,-<A,-[A,EA]3/2 | %6
[M:3/4] x4[K:bass] x2 | [B,,B,]2 z2 z2 | x3[K:bass] x3 | x6 | x6 | EE F, B,,3 | x3[K:bass] x3 | %13
 x6 | x6 | [B,,B,]2 z2 z2 |] %16

